src/media/icons/methodology/break.svg

<?xml version="1.0" encoding="UTF-8"?>
<svg width="80px" height="80px" viewBox="0 0 80 80" version="1.1" xmlns="http://www.w3.org/2000/svg" xmlns:xlink="http://www.w3.org/1999/xlink">
    <title>break</title>
    <g id="✨Symbols" stroke="none" stroke-width="1" fill="none" fill-rule="evenodd">
        <g id="01-Base-/-Ic-/-CoffeeBreak" transform="translate(-1.000000, -1.000000)">
            <g id="break" transform="translate(1.000000, 1.000000)">
                <path d="M33.8645793,23.2330333 C33.4735029,23.2330333 33.0911937,23.0376517 32.8682583,22.6818004 C32.5243053,22.1321331 32.6908806,21.407593 33.2405479,21.0634834 C35.1619569,19.8608219 34.8266145,18.9009785 33.8111937,16.6534638 C32.7636791,14.3345597 31.180274,10.8302153 35.9747945,7.61518591 C36.5131898,7.25432485 37.2428963,7.3978865 37.6039139,7.93659491 C37.9649315,8.47530333 37.8212133,9.20454012 37.2825049,9.56571429 C34.1382387,11.6740509 34.8986301,13.357182 35.9511546,15.6867319 C36.9099022,17.809002 38.223092,20.7153033 34.4865753,23.0542466 C34.2927593,23.1752642 34.0773386,23.2330333 33.8645793,23.2330333 L33.8645793,23.2330333 Z" id="Path" fill="#F3EAE6" fill-rule="nonzero"></path>
                <path d="M43.6934638,15.8783562 C43.3023875,15.8783562 42.9202348,15.6831311 42.6972994,15.3271233 C42.3531898,14.777456 42.5196086,14.0529159 43.0692759,13.7088063 C44.9935029,12.5037965 44.6576908,11.5436399 43.6414873,9.29581213 C42.5935029,6.97784736 41.0096282,3.47491194 45.8038356,0.26035225 C46.3423875,-0.10035225 47.0719374,0.0428962818 47.432955,0.581761252 C47.7941292,1.12031311 47.6502544,1.84970646 47.111546,2.21088063 C43.9683757,4.318591 44.7287671,6.00046967 45.7812916,8.32829746 C46.7408219,10.4507241 48.0549511,13.3574951 44.3156164,15.6990998 C44.1218004,15.8205871 43.9063796,15.8783562 43.6934638,15.8783562 L43.6934638,15.8783562 Z" id="Path" fill="#F3EAE6" fill-rule="nonzero"></path>
                <path d="M14.5075538,22.058865 L66.6559687,22.058865 C67.6585519,22.058865 68.4779648,22.878591 68.4779648,23.8814873 L68.4779648,39.5893542 C68.4779648,49.2292759 60.5900587,57.1153033 50.9532681,57.1153033 L40.9841096,61.4589432 L30.2057143,57.1153033 C20.5689237,57.1153033 12.6855577,49.2292759 12.6855577,39.5893542 L12.6855577,23.8814873 C12.6855577,22.878591 13.5049706,22.058865 14.5075538,22.058865 Z" id="Path" fill="#FECE85"></path>
                <path d="M73.6327202,47.4954207 L66.4425832,47.4954207 C65.7939726,47.4954207 65.2684149,46.969863 65.2684149,46.3212524 C65.2684149,45.6726419 65.7939726,45.1470841 66.4425832,45.1470841 L73.6327202,45.1470841 C75.830137,45.1470841 77.6180039,43.4858708 77.6180039,41.4440705 L77.6180039,34.1535812 C77.6180039,32.1117808 75.830137,30.4505675 73.6327202,30.4505675 L68.4778082,30.4505675 C67.8291977,30.4505675 67.3036399,29.9250098 67.3036399,29.2763992 C67.3036399,28.6277886 67.8291977,28.1022309 68.4778082,28.1022309 L73.6327202,28.1022309 C77.1251663,28.1022309 79.9663405,30.816908 79.9663405,34.1535812 L79.9663405,41.4440705 C79.9663405,44.7807436 77.1251663,47.4954207 73.6327202,47.4954207 Z" id="Path" fill="#FDB440" fill-rule="nonzero"></path>
                <g id="Group" transform="translate(0.939335, 33.346380)" fill-rule="nonzero">
                    <path d="M8.01956947,23.7689237 L71.2651272,23.7689237 C71.5627397,23.7689237 71.8054012,24.0162818 71.8054012,24.3138943 L71.8054012,28.1149119 C71.8054012,30.5008219 69.8506458,32.4563601 67.465362,32.4563601 L11.8193346,32.4563601 C9.42966732,32.4563601 7.47475538,30.5008219 7.47475538,28.1149119 L7.47475538,24.3138943 C7.47475538,24.0161252 7.72195695,23.7689237 8.01956947,23.7689237 Z" id="Path" fill="#DC8758"></path>
                    <path d="M71.2651272,23.7689237 L59.2065753,23.7689237 L56.2675538,23.7689237 C56.5651663,23.7689237 56.8123679,24.0162818 56.8123679,24.3138943 L56.8123679,28.1149119 C56.8123679,30.5008219 54.8576125,32.4563601 52.4677886,32.4563601 L67.465362,32.4563601 C69.8504892,32.4563601 71.8054012,30.5008219 71.8054012,28.1149119 L71.8054012,24.3138943 C71.8054012,24.0161252 71.5625832,23.7689237 71.2651272,23.7689237 Z" id="Path" fill="#C86D35"></path>
                    <polygon id="Path" fill="#F3EAE6" points="11.7460665 0.110998043 56.1621918 0.110998043 56.1621918 7.21393346 11.7460665 7.21393346"></polygon>
                    <polygon id="Path" fill="#E0D2CE" points="56.1621918 0.110998043 67.5386301 0.110998043 67.5386301 7.21393346 56.1621918 7.21393346"></polygon>
                    <path d="M32.658317,29.0713112 C32.658317,29.4658317 32.644227,29.8572211 32.616047,30.2454795 C32.0399217,38.2987084 25.5757339,44.7644618 17.525636,45.3421526 C17.1373777,45.3703327 16.7459883,45.3844227 16.3514677,45.3844227 C15.9569472,45.3844227 15.5655577,45.3703327 15.1772994,45.3421526 C7.1146771,44.7628963 0.64109589,38.2767906 0.0837573386,30.204775 C0.0571428571,29.8306067 0.0446183953,29.4517417 0.0446183953,29.0713112 C0.0446183953,28.6627006 0.0602739726,28.2572211 0.0900195695,27.8564384 C0.684931507,19.8235616 7.14129159,13.3781605 15.1772994,12.8020352 C15.5655577,12.7738552 15.9569472,12.7597652 16.3514677,12.7597652 C16.7459883,12.7597652 17.1373777,12.7738552 17.525636,12.8020352 C25.5757339,13.379726 32.0399217,19.8454795 32.616047,27.8971429 C32.644227,28.2854012 32.658317,28.6767906 32.658317,29.0713112 L32.658317,29.0713112 Z" id="Path" fill="#F3EAE6"></path>
                    <path d="M20.5908415,13.3183562 C22.3167123,16.2951076 23.5436399,20.1280626 24.0380431,24.4145597 L24.0380431,24.4328767 C24.1981996,25.7975734 24.2761644,27.2081409 24.2761644,28.6506458 C24.2761644,30.1847358 24.1845793,31.6776517 24.0106458,33.1203131 C23.4384344,37.8097847 21.9917025,41.9405088 19.9682192,44.9812916 C25.9287671,43.6303718 30.644227,39.0187084 32.1502935,33.1203131 C32.4798434,31.8243444 32.6584736,30.468728 32.6584736,29.0719374 C32.6584736,27.4598826 32.4250489,25.9029354 31.990137,24.4328767 C30.3877886,19.024501 26.0524462,14.7838748 20.5908415,13.3183562 Z" id="Path" fill="#E0D2CE"></path>
                </g>
                <path d="M6.43835616,62.3769863 C6.43835616,63.0251272 5.91232877,63.5511546 5.26418787,63.5511546 L1.02309198,63.5511546 C0.996477495,63.1769863 0.983953033,62.7981213 0.983953033,62.4176908 C0.983953033,62.0090802 0.999608611,61.6036008 1.02935421,61.202818 L5.26418787,61.202818 C5.91232877,61.202818 6.43835616,61.7286888 6.43835616,62.3769863 Z" id="Path" fill="#746E6E" fill-rule="nonzero"></path>
                <path d="M57.1015264,22.058865 L57.1015264,33.4573777 L68.4779648,33.4573777 L68.4779648,29.2762427 L68.4779648,23.8814873 C68.4779648,22.878591 67.6585519,22.058865 66.6559687,22.058865 L57.1015264,22.058865 Z" id="Path" fill="#FDB440"></path>
                <path d="M57.1015264,40.5601566 C57.0877495,48.2080626 52.1160078,54.7475538 45.249002,57.1151468 L50.9532681,57.1151468 C60.2650489,57.1151468 67.9423875,49.755773 68.4505675,40.5601566 L57.1015264,40.5601566 Z" id="Path" fill="#FDB440"></path>
                <path d="M23.264501,54.9587476 C22.7743249,54.5347945 22.0327202,54.58818 21.6082975,55.0785127 L16.2735029,61.2443053 L12.4657534,61.2443053 C11.8171429,61.2443053 11.2915851,61.769863 11.2915851,62.4184736 C11.2915851,63.0670841 11.8171429,63.5926419 12.4657534,63.5926419 L16.8101761,63.5926419 C17.1511546,63.5926419 17.4750685,63.4445401 17.6981605,63.1866928 L23.3841096,56.6149511 C23.8083757,56.1246184 23.7548337,55.3830137 23.264501,54.9587476 L23.264501,54.9587476 Z" id="Path" fill="#746E6E" fill-rule="nonzero"></path>
                <path d="M34.9166341,61.1596086 C34.3007436,52.5518591 27.3460665,45.5948337 18.7398826,44.9772211 C17.9082583,44.9167906 17.0531507,44.9167906 16.2227789,44.9772211 C7.63772994,45.5927984 0.684305284,52.5310372 0.0485322896,61.1156164 C0.0162818004,61.5494325 0,61.9874755 0,62.4175342 C0,62.8320939 0.0142465753,63.2414873 0.0419569472,63.6319374 C0.637964775,72.2633268 7.59405088,79.2396086 16.2219961,79.8595695 C16.6365558,79.8894716 17.0601957,79.9048141 17.4810176,79.9048141 C17.9018395,79.9048141 18.325636,79.8894716 18.7392564,79.8595695 C27.3462231,79.2419569 34.3010568,72.2841487 34.9167906,63.6765558 C34.9466928,63.2621526 34.9620352,62.8383562 34.9620352,62.4175342 C34.9620352,61.9968689 34.9466928,61.573229 34.9166341,61.1596086 L34.9166341,61.1596086 Z M18.5701761,77.5173386 C18.5354207,77.5198434 18.4998826,77.5207828 18.4649706,77.5229746 L18.4649706,74.4488454 C18.4649706,73.8007045 17.9389432,73.2746771 17.2908023,73.2746771 C16.6426614,73.2746771 16.1166341,73.8007045 16.1166341,74.4488454 L16.1166341,77.4911937 C8.77542074,76.8280235 2.89424658,70.8496282 2.38450098,63.4677104 C2.36054795,63.1301761 2.34833659,62.7768297 2.34833659,62.4175342 C2.34833659,62.0454012 2.36258317,61.66591 2.39060665,61.2893933 C2.9341683,53.9502153 8.81221135,48.0053229 16.1167906,47.3455969 L16.1167906,50.3926419 C16.1167906,51.0407828 16.642818,51.5668102 17.2909589,51.5668102 C17.9390998,51.5668102 18.4651272,51.0407828 18.4651272,50.3926419 L18.4651272,47.313816 C18.5003523,47.3161644 18.536047,47.3169472 18.5711155,47.3196086 C25.9927984,47.8523679 31.9937378,53.8309198 32.5665753,61.2436791 L29.3128767,61.2436791 C28.6647358,61.2436791 28.1387084,61.7697065 28.1387084,62.4178474 C28.1387084,63.0675538 28.6647358,63.5920157 29.3128767,63.5920157 L32.5665753,63.5920157 C31.9942074,71.0049315 25.992955,76.9845793 18.5701761,77.5173386 L18.5701761,77.5173386 Z" id="Shape" fill="#746E6E" fill-rule="nonzero"></path>
            </g>
        </g>
    </g>
</svg>

<?xml version="1.0" encoding="utf-8"?>
<!-- Generator: Adobe Illustrator 23.0.6, SVG Export Plug-In . SVG Version: 6.00 Build 0)  -->
<svg version="1.1" id="Calque_1" xmlns="http://www.w3.org/2000/svg" xmlns:xlink="http://www.w3.org/1999/xlink" x="0px" y="0px"
	 viewBox="0 0 80 80" style="enable-background:new 0 0 80 80;" xml:space="preserve">
<style type="text/css">
	.st0{fill:#FEF4D2;}
	.st1{fill-rule:evenodd;clip-rule:evenodd;fill:#F9CA1C;}
	.st2{fill:#BB9815;}
	.st3{fill:#7D650E;}
	.st4{fill:#3E3207;}
	.st5{fill:#E0D2CE;}
	.st6{fill:#FDEAA4;}
	.st7{fill-rule:evenodd;clip-rule:evenodd;fill:#BB9815;}
	.st8{fill:#F9CA1C;}
	.st9{fill:#FAD549;}
	.st10{fill:#FBDF77;}
</style>
<title>break</title>
<path id="Path" class="st0" d="M33.9,23.2c-0.4,0-0.8-0.2-1-0.6c-0.3-0.5-0.2-1.3,0.4-1.6c1.9-1.2,1.6-2.2,0.6-4.4
	c-1-2.3-2.6-5.8,2.2-9c0.5-0.4,1.3-0.2,1.6,0.3c0.4,0.5,0.2,1.3-0.3,1.6c-3.1,2.1-2.4,3.8-1.3,6.1c1,2.1,2.3,5-1.5,7.4
	C34.3,23.2,34.1,23.2,33.9,23.2L33.9,23.2z"/>
<path class="st0" d="M43.7,15.9c-0.4,0-0.8-0.2-1-0.6c-0.3-0.5-0.2-1.3,0.4-1.6c1.9-1.2,1.6-2.2,0.6-4.4c-1-2.3-2.6-5.8,2.2-9
	c0.5-0.4,1.3-0.2,1.6,0.3c0.4,0.5,0.2,1.3-0.3,1.6C44,4.3,44.7,6,45.8,8.3c1,2.1,2.3,5-1.5,7.4C44.1,15.8,43.9,15.9,43.7,15.9
	L43.7,15.9z"/>
<path class="st1" d="M14.5,22.1h52.1c1,0,1.8,0.8,1.8,1.8v15.7c0,9.6-7.9,17.5-17.5,17.5l-10,4.3l-10.8-4.3
	c-9.6,0-17.5-7.9-17.5-17.5V23.9C12.7,22.9,13.5,22.1,14.5,22.1z"/>
<path class="st2" d="M73.6,47.5h-7.2c-0.6,0-1.2-0.5-1.2-1.2c0-0.6,0.5-1.2,1.2-1.2h7.2c2.2,0,4-1.7,4-3.7v-7.3c0-2-1.8-3.7-4-3.7
	h-5.2c-0.6,0-1.2-0.5-1.2-1.2s0.5-1.2,1.2-1.2h5.2c3.5,0,6.3,2.7,6.3,6.1v7.3C80,44.8,77.1,47.5,73.6,47.5z"/>
<g id="Group" transform="translate(0.939335, 33.346380)">
	<path class="st3" d="M8,23.8h63.2c0.3,0,0.5,0.2,0.5,0.5v3.8c0,2.4-2,4.3-4.3,4.3H11.8c-2.4,0-4.3-2-4.3-4.3v-3.8
		C7.5,24,7.7,23.8,8,23.8z"/>
	<path class="st4" d="M71.3,23.8H59.2h-2.9c0.3,0,0.5,0.2,0.5,0.5v3.8c0,2.4-2,4.3-4.3,4.3h15c2.4,0,4.3-2,4.3-4.3v-3.8
		C71.8,24,71.6,23.8,71.3,23.8z"/>
	<polygon class="st0" points="11.7,0.1 56.2,0.1 56.2,7.2 11.7,7.2 	"/>
	<polygon class="st5" points="56.2,0.1 67.5,0.1 67.5,7.2 56.2,7.2 	"/>
	<path class="st0" d="M32.7,29.1c0,0.4,0,0.8,0,1.2c-0.6,8.1-7,14.5-15.1,15.1c-0.4,0-0.8,0-1.2,0c-0.4,0-0.8,0-1.2,0
		C7.1,44.8,0.6,38.3,0.1,30.2c0-0.4,0-0.8,0-1.1c0-0.4,0-0.8,0-1.2c0.6-8,7.1-14.5,15.1-15.1c0.4,0,0.8,0,1.2,0c0.4,0,0.8,0,1.2,0
		c8.1,0.6,14.5,7,15.1,15.1C32.6,28.3,32.7,28.7,32.7,29.1L32.7,29.1z"/>
	<path class="st6" d="M20.6,13.3c1.7,3,3,6.8,3.4,11.1v0c0.2,1.4,0.2,2.8,0.2,4.2c0,1.5-0.1,3-0.3,4.5c-0.6,4.7-2,8.8-4,11.9
		c6-1.4,10.7-6,12.2-11.9c0.3-1.3,0.5-2.7,0.5-4c0-1.6-0.2-3.2-0.7-4.6C30.4,19,26.1,14.8,20.6,13.3z"/>
</g>
<path class="st4" d="M6.4,62.4c0,0.6-0.5,1.2-1.2,1.2H1c0-0.4,0-0.8,0-1.1c0-0.4,0-0.8,0-1.2h4.2C5.9,61.2,6.4,61.7,6.4,62.4z"/>
<path class="st7" d="M57.1,22.1v11.4h11.4v-4.2v-5.4c0-1-0.8-1.8-1.8-1.8H57.1z"/>
<path class="st7" d="M57.1,40.6c0,7.6-5,14.2-11.9,16.6H51c9.3,0,17-7.4,17.5-16.6H57.1z"/>
<path class="st4" d="M23.3,55c-0.5-0.4-1.2-0.4-1.7,0.1l-5.3,6.2h-3.8c-0.6,0-1.2,0.5-1.2,1.2c0,0.6,0.5,1.2,1.2,1.2h4.3
	c0.3,0,0.7-0.1,0.9-0.4l5.7-6.6C23.8,56.1,23.8,55.4,23.3,55L23.3,55z"/>
<path id="Shape" class="st4" d="M34.9,61.2c-0.6-8.6-7.6-15.6-16.2-16.2c-0.8-0.1-1.7-0.1-2.5,0C7.6,45.6,0.7,52.5,0,61.1
	c0,0.4,0,0.9,0,1.3c0,0.4,0,0.8,0,1.2c0.6,8.6,7.6,15.6,16.2,16.2c0.4,0,0.8,0,1.3,0s0.8,0,1.3,0c8.6-0.6,15.6-7.6,16.2-16.2
	c0-0.4,0-0.8,0-1.3C35,62,34.9,61.6,34.9,61.2L34.9,61.2z M18.6,77.5c0,0-0.1,0-0.1,0v-3.1c0-0.6-0.5-1.2-1.2-1.2
	c-0.6,0-1.2,0.5-1.2,1.2v3c-7.3-0.7-13.2-6.6-13.7-14c0-0.3,0-0.7,0-1.1c0-0.4,0-0.8,0-1.1C2.9,54,8.8,48,16.1,47.3v3
	c0,0.6,0.5,1.2,1.2,1.2c0.6,0,1.2-0.5,1.2-1.2v-3.1c0,0,0.1,0,0.1,0c7.4,0.5,13.4,6.5,14,13.9h-3.3c-0.6,0-1.2,0.5-1.2,1.2
	c0,0.6,0.5,1.2,1.2,1.2h3.3C32,71,26,77,18.6,77.5L18.6,77.5z"/>
<rect x="-113.6" y="101.6" class="st4" width="25.7" height="25.7"/>
<rect x="-75.8" y="101.6" class="st3" width="25.7" height="25.7"/>
<rect x="-35.4" y="101.6" class="st2" width="25.7" height="25.7"/>
<rect x="-0.3" y="101.6" class="st8" width="25.7" height="25.7"/>
<rect x="34.9" y="101.6" class="st9" width="25.7" height="25.7"/>
<rect x="78.5" y="101.6" class="st10" width="25.7" height="25.7"/>
<rect x="117.8" y="101.6" class="st6" width="25.7" height="25.7"/>
<rect x="167.9" y="101.6" class="st0" width="25.7" height="25.7"/>
</svg>
